svgs/light/arrows-repeat.svg

<svg xmlns="http://www.w3.org/2000/svg" viewBox="0 0 512 512"><!--! Font Awesome Pro 6.3.0 by @fontawesome - https://fontawesome.com License - https://fontawesome.com/license (Commercial License) Copyright 2023 Fonticons, Inc. --><path d="M176 112h211.8l-62.05 51.72c-6.781 5.656-7.703 15.75-2.047 22.53C326.9 190 331.4 192 336 192c3.609 0 7.234-1.219 10.23-3.719l96-80C445.9 105.3 448 100.7 448 95.1s-2.109-9.248-5.75-12.28l-96-80c-6.797-5.688-16.89-4.719-22.55 2.031c-5.656 6.781-4.734 16.88 2.047 22.53L387.8 80H176C78.95 80 0 158.1 0 255.1C0 264.8 7.156 272 16 272S32.01 264.8 32.01 256C32.01 176.6 96.59 112 176 112zM496 240c-8.844 0-16.01 7.156-16.01 16c0 79.41-64.59 144-143.1 144H124.2l62.05-51.72c6.781-5.656 7.703-15.75 2.047-22.53C182.7 319 172.6 318.1 165.8 323.7l-96 80C66.11 406.8 64 411.2 64 415.1s2.109 9.25 5.75 12.28l96 80C168.8 510.8 172.4 512 175.1 512c4.594 0 9.141-1.969 12.31-5.75c5.656-6.781 4.734-16.88-2.047-22.53L124.2 432H336c97.05 0 176-78.97 176-176C512 247.2 504.8 240 496 240z"/></svg>

<svg xmlns="http://www.w3.org/2000/svg" viewBox="0 0 512 512"><!-- Font Awesome Pro 6.0.0-alpha2 by @fontawesome - https://fontawesome.com License - https://fontawesome.com/license (Commercial License) --><path d="M176 112H387.803L325.75 163.719C318.969 169.375 318.047 179.469 323.703 186.25C326.875 190.031 331.422 192 336.016 192C339.625 192 343.25 190.781 346.25 188.281L442.25 108.281C445.891 105.25 448 100.75 448 96S445.891 86.75 442.25 83.719L346.25 3.715C339.453 -1.973 329.359 -1.004 323.703 5.746C318.047 12.527 318.969 22.621 325.75 28.277L387.803 80H176C78.953 80 0 158.969 0 256C0 264.844 7.156 272 16 272S32 264.844 32 256C32 176.594 96.594 112 176 112ZM496 240C487.156 240 480 247.156 480 256C480 335.406 415.406 400 336 400H124.197L186.25 348.281C193.031 342.625 193.953 332.531 188.297 325.75C182.656 319 172.578 318.062 165.75 323.719L69.75 403.719C66.109 406.75 64 411.25 64 416S66.109 425.25 69.75 428.281L165.75 508.281C168.75 510.781 172.375 512 175.984 512C180.578 512 185.125 510.031 188.297 506.25C193.953 499.469 193.031 489.375 186.25 483.719L124.197 432H336C433.047 432 512 353.031 512 256C512 247.156 504.844 240 496 240Z"/></svg>
